!!!OTL: 252. Sehnsucht.
!!!COM: C. Bornhardt
!!!ARE: Europa, Mitteleuropa, Deutschland, Nassau
!!!SCT: B0252
!!!TXL: @@DE
!!!YEM: Copyright 1995, estate of Helmut Schaffrath.
**kern	**text
*ICvox	*
*Ivox	*
*M4/4	*
*met(c)	*
*clefG2	*
*k[]	*
*C:	*
!LO:TX:a:t=Gefühlvoll und langſam.	!
{8g	Jch
8g	denk'
8f	an
=1	=1
4.e	euch,
8e	ihr
8e	himmliſch
8f	.
8g	ſchö-
8a	-en
=2	=2
8gL	Ta-
8fJ	.
4d	-ge
4r}	.
{4b	der
=3	=3
4.cc	ſe-
(16b\L	-li-
16aJ)	.
8g	-gen
8e	Ver-
8d	-gan-
8g	-gen-
=4	=4
4e	-heit!
4r	.
8r}	.
{8g	Komm,
8cc	Göt-
8ee	-ter-
=5	=5
4.dd	-kind,
8ee	o
8ff	Phan-
8dd	-ta-
(16ccL	-ſie
16bJ)	.
(16a\L	und
16bJ)	.
=6	=6
8ccL	tra-
8eeJ	.
4g	-ge
8r}	.
{8g	mein
8cc	ſeh-
8b-	-nend
=7	=7
4.a	Hers
8a	ʒu
8g	ſei-
8g	-ner
8a	Blü-
8b	-then-
=8	=8
2cc	-ʒeit!
!LO:N:vis=4	!
8r}	.
==	==
!!!AGN: Stimmungs - Lied, Sehnsucht
!!!GTL: Trauerlieder (Elegien) und Stimmungslieder
!!!ONB: ESAC (Essen Associative Code) Database: BOEHME
!!!AMT: simple quadruple
!!!AIN: vox
!!!EED: Helmut Schaffrath
!!!EEV: 1.0
!!Mel. v. C. Bornhardt. 1810.
!!@@COMMENT:"Gedicht von Aug. Mahlmann 1801. Ʒuerſt in Beckers "Taſchenb. ʒum geſell. Vergnügen
!!für 1802 S. 278. Dem Liede wurden ſpäter vom Dichter ſelbſt mehrere Strophen in der Mitte
!!ʒugeſetʒt. Nach 1880 wurde das Lied im Naſſauiſchen gehört."
!!@@END:
!!!Text: Aug. Mahlmann
!!!URL-scan: https://archive.org/details/BoehmeVtLieder1895/page/n221/mode/2up
!!!ENC: Anna Maria Matuszewska
!!!EEV: 2024/03/07
*-	*-
